src/main/webapp/scripts/pdfjs/v54530/web/images/secondaryToolbarButton-documentProperties.svg

<svg fill="none" height="16" viewBox="0 0 16 16" width="16" xmlns="http://www.w3.org/2000/svg"><path d="m8 1.5c-3.58985 0-6.5 2.91015-6.5 6.5 0 3.5899 2.91015 6.5 6.5 6.5 3.5899 0 6.5-2.9101 6.5-6.5 0-3.58985-2.9101-6.5-6.5-6.5zm-8 6.5c0-4.41828 3.58172-8 8-8 4.4183 0 8 3.58172 8 8 0 4.4183-3.5817 8-8 8-4.41828 0-8-3.5817-8-8zm8.75-4v1.5h-1.5v-1.5zm0 8v-5h-1.5v5z" fill="#000"/></svg>

<svg width="16" height="16" viewBox="0 0 16 16" fill="none" xmlns="http://www.w3.org/2000/svg">
<path d="M8 1.5C4.41015 1.5 1.5 4.41015 1.5 8C1.5 11.5899 4.41015 14.5 8 14.5C11.5899 14.5 14.5 11.5899 14.5 8C14.5 4.41015 11.5899 1.5 8 1.5ZM0 8C0 3.58172 3.58172 0 8 0C12.4183 0 16 3.58172 16 8C16 12.4183 12.4183 16 8 16C3.58172 16 0 12.4183 0 8ZM8.75 4V5.5H7.25V4H8.75ZM8.75 12V7H7.25V12H8.75Z" fill="black"/>
</svg>
